svgs/sharp-regular/square-dashed.svg

<svg xmlns="http://www.w3.org/2000/svg" viewBox="0 0 448 512"><!--! Font Awesome Pro 6.6.0 by @fontawesome - https://fontawesome.com License - https://fontawesome.com/license (Commercial License) Copyright 2024 Fonticons, Inc. --><path d="M24 32l104 0 0 48L48 80l0 80L0 160 0 56 0 32l24 0zM0 192l48 0 0 128L0 320 0 192zm400 0l48 0 0 128-48 0 0-128zm48-32l-48 0 0-80-80 0 0-48 104 0 24 0 0 24 0 104zm0 192l0 104 0 24-24 0-104 0 0-48 80 0 0-80 48 0zM48 352l0 80 80 0 0 48L24 480 0 480l0-24L0 352l48 0zM288 480l-128 0 0-48 128 0 0 48zM160 80l0-48 128 0 0 48L160 80z"/></svg>

<svg xmlns="http://www.w3.org/2000/svg" viewBox="0 0 448 512"><!--! Font Awesome Pro 6.4.2 by @fontawesome - https://fontawesome.com License - https://fontawesome.com/license (Commercial License) Copyright 2023 Fonticons, Inc. --><path d="M24 32H128V80H48v80H0V56 32H24zM0 192H48V320H0V192zm400 0h48V320H400V192zm48-32H400V80H320V32H424h24V56 160zm0 192V456v24H424 320V432h80V352h48zM48 352v80h80v48H24 0V456 352H48zM288 480H160V432H288v48zM160 80V32H288V80H160z"/></svg>
